X:54
M:6/8
L:1/8
K:Bb
|:f2f fbf|fbf dcB|bag fed|cdB cAF|BdB GEG|cec AFA|afd ecA|{A}B3 B,3:|

